_includes/icons/color-file-archiver.svg

<svg fill="#666" height="50" viewBox="0 0 48 48" width="50" xmlns="http://www.w3.org/2000/svg"><path d="m8 3h32v42h-32z" fill="#90caf9"/><g fill="#1976d2"><path d="m22 21h4v2h-4z"/><path d="m22 15h4v2h-4z"/><path d="m22 18h4v2h-4z"/><path d="m22 24h4v2h-4z"/><path d="m22 9h4v2h-4z"/><path d="m22 3h4v2h-4z"/><path d="m22 6h4v2h-4z"/><path d="m22 12h4v2h-4z"/></g><path d="m26 27h-4c0 3-2 6-2 8 0 2.210938 1.789063 4 4 4 2.210938 0 4-1.789062 4-4 0-2-2-5-2-8zm-2 10c-1.105469 0-2-.894531-2-2s.894531-2 2-2 2 .894531 2 2-.894531 2-2 2z" fill="#3f51b5"/></svg>

<svg xmlns="http://www.w3.org/2000/svg" viewBox="0 0 48 48" width="50" height="50" fill="#666"><path d="M 8 3 L 40 3 L 40 45 L 8 45 Z" fill="#90caf9"/><path d="M 22 21 L 26 21 L 26 23 L 22 23 Z" fill="#1976d2"/><path d="M 22 15 L 26 15 L 26 17 L 22 17 Z" fill="#1976d2"/><path d="M 22 18 L 26 18 L 26 20 L 22 20 Z" fill="#1976d2"/><path d="M 22 24 L 26 24 L 26 26 L 22 26 Z" fill="#1976d2"/><path d="M 22 9 L 26 9 L 26 11 L 22 11 Z" fill="#1976d2"/><path d="M 22 3 L 26 3 L 26 5 L 22 5 Z" fill="#1976d2"/><path d="M 22 6 L 26 6 L 26 8 L 22 8 Z" fill="#1976d2"/><path d="M 22 12 L 26 12 L 26 14 L 22 14 Z" fill="#1976d2"/><path d="M 26 27 L 22 27 C 22 30 20 33 20 35 C 20 37.210938 21.789063 39 24 39 C 26.210938 39 28 37.210938 28 35 C 28 33 26 30 26 27 Z M 24 37 C 22.894531 37 22 36.105469 22 35 C 22 33.894531 22.894531 33 24 33 C 25.105469 33 26 33.894531 26 35 C 26 36.105469 25.105469 37 24 37 Z" fill="#3f51b5"/></svg>
